def unnamed():
  sleep(5)

  # initilization position
  global Waypoint_init_p=p[0.044650496498800665, -0.4184831064453707, 0.09771873076319293, -2.933768590685885, 0.3745047709288208, 1.0176348853296542]
  global Waypoint_init_q=[1.2950719594955444, -1.4009383360492151, 1.9036192893981934, -2.8391874472247522, -1.3085878531085413, -3.3486998716937464]
  
  global Waypoint_1_p=p[0.17046236480699156, -0.4001026331354794, 0.11018154604047542, -2.931622878549493, 0.43407935376171874, 0.9953578003807396]
  global Waypoint_1_q=[1.7164597511291504, -1.3413613478290003, 1.7863712310791016, -2.8280728499041956, -1.6269071737872522, -3.015524450932638]
  
  global Waypoint_pick_p=p[0.1704661126980771, -0.40006936944734894, 0.02411957901259007, -2.9314713146427507, 0.4340668665661817, 0.9953211038699864]
  global Waypoint_pick_q=[1.7171069383621216, -1.118629280720846, 1.9646925926208496, -3.228964153920309, -1.6272662321673792, -3.0152016321765345]
  
  global Waypoint_2_p=p[0.17045349269632937, -0.4001081416084773, 0.12776569207199956, -2.9316534171810034, 0.43414269067071026, 0.9953838316652691]
  global Waypoint_2_q=[1.716256022453308, -1.3702338377581995, 1.7332663536071777, -2.746147934590475, -1.6268237272845667, -3.0155485312091272]
  
  global Waypoint_place_p=p[0.17790826700623646, -0.1968524678092971, 0.04222446898533108, -2.9314171800805937, 0.4339826561978916, 0.9954775809403217]
  global Waypoint_place_q=[2.011305332183838, -1.8196476141559046, 2.6451144218444824, -3.174783531819479, -1.8368619124041956, -2.8097947279559534]
  

  # moving
  movej(get_inverse_kin(Waypoint_init_p, qnear=Waypoint_init_q), a=1.3962634015954636, v=1.0471975511965976)

  movej(get_inverse_kin(Waypoint_1_p, qnear=Waypoint_1_q), a=1.3962634015954636, v=1.0471975511965976)
  
  movej(get_inverse_kin(Waypoint_pick_p, qnear=Waypoint_pick_q), a=1.3962634015954636, v=1.0471975511965976)
  
  # kep
  set_digital_out(1,True)
  set_digital_out(2,False)

  sleep(1)
  
  movej(get_inverse_kin(Waypoint_2_p, qnear=Waypoint_2_q), a=1.3962634015954636, v=1.0471975511965976)
  
  movej(get_inverse_kin(Waypoint_place_p, qnear=Waypoint_place_q), a=1.3962634015954636, v=1.0471975511965976)

  sleep(1)
  
  # nha
  set_digital_out(1,False)
  set_digital_out(2,True)

  sleep(1)
  set_digital_out(2,False)

  # final step
  movej(get_inverse_kin(Waypoint_init_p, qnear=Waypoint_init_q), a=1.3962634015954636, v=1.0471975511965976)
end
